X: 41823
T: Viking
R: jig
M: 6/8
K: Edorian
|:EBE EBE|EFA B2c|dcB AFD|AFD AFD|
EBE EBE|EFA B2c|dcB AFA|dAF E3:|
|:Bee Bee|fdd B2c|d2D DEF|ADD FAA|
Bee Bee|fdd B2c|d2D DFA|BAF E3:|

